src/assets/updog-paws-up-left.svg

<svg fill="none" height="638" viewBox="0 0 627 638" width="627" xmlns="http://www.w3.org/2000/svg"><path d="m153.34 489.68-17.966-53.792s-21.758-43.052-31.206-141.75l-2.821-26.267s-67.6082-245.1124 112.673-265.45413c118.488-13.35547 195.698 31.52473 234.723 63.86413 21.085 17.4781 25.737 41.547 31.132 68.357 4.702 23.329-17.768 68.061-8.34 92.328 40.585 104.375 47.316 111.139 58.254 124.79 6.237 7.801 28.311 25.057 42.515 51.151 28.484 52.311 21.852 132.172 21.852 132.172l-284.886 50.903s-89.484 12.788-123.808-13.059l-2.599-28.735" fill="#e4b652"/><path d="m212.014 0s-76.477 12.3962-104.668 13.7653c-28.1918 1.369-45.2499-3.90808-52.1126 40.773-6.8627 44.6811 11.1334 80.4507 20.1685 84.1847 9.3807 3.883 22.7851 5.675 34.1411-23.174 11.355-28.8502 23.673-64.7943 50.31-81.9199 22.513-14.4623 43.225-22.8011 49.125-25.04137 1.382-.52273 2.666-1.2197 3.851-2.06603 3.209-2.29006 7.899-6.5217-.815-6.5217z" fill="#544b43"/><path d="m383.94 32.7105s-5.505-15.5652 22.485-.5883c27.991 14.977 50.868 26.179 77.366 33.214 26.499 7.035 41.106 11.055 43.601 34.9548 2.52 23.899-20.087 60.177-40.469 81.012-11.206 11.472-18.497 7.967-22.779 2.501-3.328-4.241-4.845-9.658-4.747-15.051.172-8.898-1.003-29.047-12.503-50.519-8.612-16.056-38.413-69.4925-62.954-85.5235z" fill="#544b43"/><path d="m168.976 148.526s45.673-30.586 97.671-22.196c51.999 8.391 72.028 56.177 72.028 56.177" stroke="#544b43" stroke-linecap="round" stroke-linejoin="round" stroke-miterlimit="10" stroke-width="3"/><path d="m260.266 145.802s-31.739-9.628-33.636 16.708c-.219 3.132 1.216 6.31 4.062 7.829 3.453 1.823 9.631 2.571 20.575-1.799 0 0 4.062-2.337 7.442 1.589 3.405 3.926 6.494 10.072 16.903 9.067 4.281-.421 7.15-2.734 9.047-5.328 3.867-5.282 3.746-12.549-.608-17.457-3.648-4.136-10.603-8.506-23.785-10.609z" fill="#544b43"/><path d="m101.735 268.953s159.071 54.601 369.555-44.822l15.708 38.369s-206.637 99.633-384.743 37.472z" fill="#16d2aa"/><path d="m259.214 396.198c18.895 0 34.213-16.327 34.213-36.467 0-20.141-15.318-36.468-34.213-36.468-18.896 0-34.214 16.327-34.214 36.468 0 20.14 15.318 36.467 34.214 36.467z" fill="#fff"/><path d="m259.205 322.452c-21.091 0-38.21 17.087-38.21 38.193 0 21.082 17.095 38.194 38.21 38.194 21.09 0 38.209-17.087 38.209-38.194 0-21.106-17.119-38.193-38.209-38.193zm0 71.086c-18.18 0-32.931-14.745-32.931-32.917 0-18.173 14.726-32.917 32.931-32.917 18.18 0 32.931 14.72 32.931 32.917 0 18.196-14.751 32.917-32.931 32.917z" fill="#16d2aa"/><path d="m259.21 393.562c18.187 0 32.931-14.738 32.931-32.917 0-18.18-14.744-32.917-32.931-32.917s-32.931 14.737-32.931 32.917c0 18.179 14.744 32.917 32.931 32.917z" fill="#fff"/><path d="m242.706 368.573c1.06 1.307 2.466 1.972 4.242 1.972s3.182-.665 4.218-1.972 1.554-3.107 1.554-5.351v-11.835l6.315-3.797v15.83c0 4.093-1.134 7.249-3.404 9.443-2.269 2.195-5.155 3.304-8.707 3.304-3.528 0-6.438-1.109-8.733-3.328-2.269-2.22-3.428-5.351-3.428-9.419v-12.033l6.315-3.797v15.608c.049 2.293.567 4.068 1.628 5.375z" fill="#16d2aa"/><path d="m280.637 350.13c1.973 1.676 2.984 4.265 2.984 7.766 0 3.502-1.011 6.041-3.058 7.669-2.048 1.627-5.156 2.416-9.325 2.416h-3.774v4.093l-6.315 3.797v-28.281h9.991c4.341.025 7.499.863 9.497 2.54zm-4.638 11.12c.765-.839 1.135-2.096 1.135-3.723 0-1.628-.494-2.787-1.48-3.477-.987-.69-2.516-1.036-4.588-1.036h-3.602v9.518h4.243c2.097 0 3.527-.419 4.292-1.282z" fill="#16d2aa"/><path d="m259.369 318.107s2.615 6.352.116 9.785c-2.516 3.456 1.308 1.144 1.308 1.144s2.333-6.305 0-10.929c0 0-.497-2.522-1.424 0z" fill="#b5dfd5"/><path d="m137.128 301.204-79.2324-28.303c-11.7464-6.178-31.9874.419-43.0388 14.785-12.33866 16.044-.1416 78.262 109.4222 94.523" fill="#e4b652"/><path d="m132.83 298.278-18.689-7.401c-6.233-2.473-12.573-4.815-18.8688-7.206l-18.9316-7.124-19.0765-6.925.1243.068c-5.4816-2.926-13.3338-3.2-21.3792-.704-8.0236 2.392-16.2011 7.81-21.7088 14.477-2.8868 3.363-4.60672 7.215-5.40677 10.634-.78477 3.456-.87299 6.722-.59504 9.779.60499 6.155 2.75761 11.517 5.47351 16.441 5.6826 9.751 13.9587 17.556 23.2359 24.256 9.3295 6.671 19.8956 12.102 31.0596 16.705-10.5802-5.307-20.669-11.15-29.5507-18.146-8.9186-6.929-16.7086-14.965-21.9365-24.63-2.6101-4.822-4.5893-10.075-5.0904-15.896-.4892-5.712.3653-12.401 5.2762-18.078 4.8759-5.843 12.0313-10.445 19.148-12.688 7.1352-2.277 14.1347-2.116 19.0884.464l.0752.026.0752.027 19.2476 6.711 19.3924 6.513c6.485 2.144 12.907 4.37 19.456 6.431z" fill="#c58f2c"/><path d="m408.564 295.219-78.119-27.899c-11.581-6.089-31.539.404-42.437 14.553-12.167 15.801 2.564 65.233 79.307 87.667" fill="#e4b652"/><path d="m406.215 293.349-18.69-7.4c-6.232-2.473-12.572-4.816-18.868-7.206l-18.932-7.124-19.076-6.925.124.068c-5.481-2.926-13.333-3.2-21.379-.704-8.023 2.392-16.201 7.81-21.709 14.476-2.886 3.364-4.606 7.216-5.406 10.635-.785 3.456-.873 6.722-.595 9.779.605 6.155 2.757 11.517 5.473 16.441 5.683 9.751 13.959 17.556 23.236 24.256 9.329 6.671 19.895 12.102 31.059 16.705-10.58-5.307-20.669-11.15-29.55-18.146-8.919-6.929-16.709-14.965-21.937-24.63-2.61-4.822-4.589-10.075-5.09-15.896-.489-5.712.365-12.401 5.276-18.079 4.876-5.842 12.031-10.444 19.148-12.687 7.135-2.277 14.135-2.116 19.088.464l.076.026.075.026 19.247 6.712 19.393 6.513c6.485 2.144 12.907 4.369 19.455 6.431z" fill="#c58f2c"/><path d="m594.825 534.714s-9.77 33.485-38.389 61.381c-7.921 7.72-17.285 15.013-28.286 21.049-12.057 6.615-26.079 11.721-42.32 14.227-84.628 13.056-106.575 0-106.575 0s-15.504-9.136 12.269-26.136c27.774-17 45.227-24.814 45.227-24.814s-118.845 7.19-158.912 5.867" fill="#e4b652"/><path d="m341.877 584.594s-72.178 10.304-156.435 26.486c-43.342 8.312-64.233 7.501-73.837 5.706-6.485-1.23-11.8807-6.198-12.8956-12.666-.9406-6.099 1.5846-14.288 15.4946-22.65 27.847-16.723 29.258-12.837 29.258-12.837-34.183-36.668 10.198-78.746 10.198-78.746s48.415 73.213 118.316 83.984" fill="#e4b652"/><path d="m152.966 489.887c19.896 41.076 87.632 68.941 131.277 86.451z" fill="#e4b652"/><path d="m152.966 489.887c19.896 41.076 87.632 68.941 131.277 86.451" stroke="#c58f2c" stroke-miterlimit="10" stroke-width="1.302"/><path d="m435.925 580.913c-10.731-5.646-19.981-14.596-25.334-25.791-2.639-5.597-4.02-11.81-4.168-17.999-.148-6.214.937-12.403 2.836-18.296 1.974-5.893 4.884-11.317 8.017-16.619 3.355-5.128 6.882-10.158 11.002-14.695 8.041-9.222 17.094-17.408 26.69-24.854l-6.636 6.213c-2.244 2.022-4.292 4.291-6.463 6.411-2.195 2.096-4.193 4.364-6.24 6.583-2.097 2.17-3.972 4.537-5.896 6.88-3.823 4.66-7.326 9.567-10.533 14.646-2.984 5.203-5.772 10.529-7.597 16.2-1.875 5.646-3.01 11.539-2.911 17.457.049 5.917 1.381 11.786 3.651 17.284 2.343 5.474 5.747 10.479 9.793 14.942 3.971 4.463 8.633 8.408 13.789 11.638z" fill="#c48f2c"/><g fill="#c58f2c"><path d="m35.175 286.575c3.5741 3.579 7.9755 4.977 9.831 3.124 1.8554-1.853.4622-6.256-3.1118-9.835-3.574-3.578-7.9755-4.976-9.8309-3.123-1.8555 1.853-.4623 6.256 3.1117 9.834z"/><path d="m19.9322 288.378c2.7798 2.783 6.4062 3.668 8.0999 1.976 1.6937-1.691.8132-5.319-1.9666-8.102s-6.4063-3.668-8.0999-1.976c-1.6937 1.691-.8132 5.319 1.9666 8.102z"/><path d="m19.5833 301.187c3.0445 3.048 6.7461 4.287 8.2678 2.768 1.5217-1.52.2871-5.223-2.7574-8.272-3.0446-3.048-6.7462-4.287-8.2679-2.767-1.5216 1.52-.2871 5.223 2.7575 8.271z"/><path d="m35.4939 308.958c5.3434 5.35 12.361 7.004 15.6743 3.695s1.6676-10.329-3.6758-15.679-12.361-7.004-15.6743-3.695c-3.3133 3.31-1.6676 10.329 3.6758 15.679z"/><path d="m309.23 280.817c3.069 4.02 7.247 5.989 9.332 4.398 2.084-1.592 1.286-6.141-1.783-10.16-3.069-4.02-7.247-5.989-9.331-4.398-2.085 1.592-1.287 6.14 1.782 10.16z"/><path d="m294.842 279.853c2.387 3.127 5.649 4.648 7.287 3.398 1.638-1.251 1.03-4.799-1.357-7.926-2.387-3.126-5.649-4.647-7.287-3.397-1.638 1.251-1.03 4.799 1.357 7.925z"/><path d="m292.897 290.717c2.157 2.825 4.871 4.377 6.062 3.468s.408-3.936-1.749-6.761c-2.156-2.825-4.87-4.377-6.061-3.468s-.408 3.936 1.748 6.761z"/><path d="m306.448 302.867c4.511 5.909 11.185 8.396 14.908 5.554 3.722-2.842 3.082-9.935-1.429-15.844s-11.186-8.395-14.908-5.554c-3.722 2.842-3.082 9.936 1.429 15.844z"/></g><path d="m339.252 132.593s-1.547-13.298-11.604-14.624c-10.082-1.299-12.848 8.015-12.848 8.015" stroke="#1e1c1a" stroke-linecap="round" stroke-linejoin="round" stroke-miterlimit="10" stroke-width="3"/><path d="m204.604 115.557s-3.783-11.045-13.813-9.668c-10.053 1.375-11.126 10.03-11.126 10.03" stroke="#1e1c1a" stroke-linecap="round" stroke-linejoin="round" stroke-miterlimit="10" stroke-width="3"/><path d="m256.075 169.699-3.851 20.263s2.668 10.654 18.932 14.643c1.137.267 2.297.365 3.458.292 3.758-.219 11.995-1.314 16.032-6.349" stroke="#544b43" stroke-linecap="round" stroke-linejoin="round" stroke-miterlimit="10" stroke-width="3"/><path d="m252.224 188.911s-8.32 12.129-21.671 9.128c-13.351-3-13.55-9.128-13.55-9.128" stroke="#544b43" stroke-linecap="round" stroke-linejoin="round" stroke-miterlimit="10" stroke-width="3"/><path d="m567.326 470.203s14.643-13.566 25.051-37.769 29.493-9.386 32.101 2.728c2.557 11.889 14.359 41.674-54.647 73.937l-10.227-21.2z" fill="#e4b652"/></svg>

<svg width="627" height="638" viewBox="0 0 627 638" fill="none" xmlns="http://www.w3.org/2000/svg">
<path d="M153.34 489.68L135.374 435.888C135.374 435.888 113.616 392.836 104.168 294.138L101.347 267.871C101.347 267.871 33.7388 22.7586 214.02 2.41687C332.508 -10.9386 409.718 33.9416 448.743 66.281C469.828 83.7591 474.48 107.828 479.875 134.638C484.577 157.967 462.107 202.699 471.535 226.966C512.12 331.341 518.851 338.105 529.789 351.756C536.026 359.557 558.1 376.813 572.304 402.907C600.788 455.218 594.156 535.079 594.156 535.079L309.27 585.982C309.27 585.982 219.786 598.77 185.462 572.923L182.863 544.188" fill="#E4B652"/>
<path d="M212.014 0C212.014 0 135.537 12.3962 107.346 13.7653C79.1542 15.1343 62.0961 9.85722 55.2334 54.5383C48.3707 99.2194 66.3668 134.989 75.4019 138.723C84.7826 142.606 98.187 144.398 109.543 115.549C120.898 86.6988 133.216 50.7547 159.853 33.6291C182.366 19.1668 203.078 10.828 208.978 8.58773C210.36 8.065 211.644 7.36803 212.829 6.5217C216.038 4.23164 220.728 0 212.014 0Z" fill="#544B43"/>
<path d="M383.94 32.7105C383.94 32.7105 378.435 17.1453 406.425 32.1222C434.416 47.0992 457.293 58.3012 483.791 65.3362C510.29 72.3712 524.897 76.3912 527.392 100.291C529.912 124.19 507.305 160.468 486.923 181.303C475.717 192.775 468.426 189.27 464.144 183.804C460.816 179.563 459.299 174.146 459.397 168.753C459.569 159.855 458.394 139.706 446.894 118.234C438.282 102.178 408.481 48.7415 383.94 32.7105Z" fill="#544B43"/>
<path d="M168.976 148.526C168.976 148.526 214.649 117.94 266.647 126.33C318.646 134.721 338.675 182.507 338.675 182.507" stroke="#544B43" stroke-width="3" stroke-miterlimit="10" stroke-linecap="round" stroke-linejoin="round"/>
<path d="M260.266 145.802C260.266 145.802 228.527 136.174 226.63 162.51C226.411 165.642 227.846 168.82 230.692 170.339C234.145 172.162 240.323 172.91 251.267 168.54C251.267 168.54 255.329 166.203 258.709 170.129C262.114 174.055 265.203 180.201 275.612 179.196C279.893 178.775 282.762 176.462 284.659 173.868C288.526 168.586 288.405 161.319 284.051 156.411C280.403 152.275 273.448 147.905 260.266 145.802Z" fill="#544B43"/>
<path d="M101.735 268.953C101.735 268.953 260.806 323.554 471.29 224.131L486.998 262.5C486.998 262.5 280.361 362.133 102.255 299.972L101.735 268.953Z" fill="#16D2AA"/>
<path d="M259.214 396.198C278.109 396.198 293.427 379.871 293.427 359.731C293.427 339.59 278.109 323.263 259.214 323.263C240.318 323.263 225 339.59 225 359.731C225 379.871 240.318 396.198 259.214 396.198Z" fill="white"/>
<path d="M259.205 322.452C238.114 322.452 220.995 339.539 220.995 360.645C220.995 381.727 238.09 398.839 259.205 398.839C280.295 398.839 297.414 381.752 297.414 360.645C297.414 339.539 280.295 322.452 259.205 322.452ZM259.205 393.538C241.025 393.538 226.274 378.793 226.274 360.621C226.274 342.448 241 327.704 259.205 327.704C277.385 327.704 292.136 342.424 292.136 360.621C292.136 378.817 277.385 393.538 259.205 393.538Z" fill="#16D2AA"/>
<path d="M259.21 393.562C277.397 393.562 292.141 378.824 292.141 360.645C292.141 342.465 277.397 327.728 259.21 327.728C241.023 327.728 226.279 342.465 226.279 360.645C226.279 378.824 241.023 393.562 259.21 393.562Z" fill="white"/>
<path d="M242.706 368.573C243.766 369.88 245.172 370.545 246.948 370.545C248.724 370.545 250.13 369.88 251.166 368.573C252.202 367.266 252.72 365.466 252.72 363.222V351.387L259.035 347.59V363.42C259.035 367.513 257.901 370.669 255.631 372.863C253.362 375.058 250.476 376.167 246.924 376.167C243.396 376.167 240.486 375.058 238.191 372.839C235.922 370.619 234.763 367.488 234.763 363.42V351.387L241.078 347.59V363.198C241.127 365.491 241.645 367.266 242.706 368.573Z" fill="#16D2AA"/>
<path d="M280.637 350.13C282.61 351.806 283.621 354.395 283.621 357.896C283.621 361.398 282.61 363.937 280.563 365.565C278.515 367.192 275.407 367.981 271.238 367.981H267.464V372.074L261.149 375.871V347.59H271.14C275.481 347.615 278.639 348.453 280.637 350.13ZM275.999 361.25C276.764 360.411 277.134 359.154 277.134 357.527C277.134 355.899 276.64 354.74 275.654 354.05C274.667 353.36 273.138 353.014 271.066 353.014H267.464V362.532H271.707C273.804 362.532 275.234 362.113 275.999 361.25Z" fill="#16D2AA"/>
<path d="M259.369 318.107C259.369 318.107 261.984 324.459 259.485 327.892C256.969 331.348 260.793 329.036 260.793 329.036C260.793 329.036 263.126 322.731 260.793 318.107C260.793 318.107 260.296 315.585 259.369 318.107Z" fill="#B5DFD5"/>
<path d="M137.128 301.204L57.8956 272.901C46.1492 266.723 25.9082 273.32 14.8568 287.686C2.51814 303.73 14.7152 365.948 124.279 382.209" fill="#E4B652"/>
<path d="M132.83 298.278L114.141 290.877C107.908 288.404 101.568 286.062 95.2722 283.671L76.3406 276.547L57.2641 269.622L57.3884 269.69C51.9068 266.764 44.0546 266.49 36.0092 268.986C27.9856 271.378 19.8081 276.796 14.3004 283.463C11.4136 286.826 9.69368 290.678 8.89363 294.097C8.10886 297.553 8.02064 300.819 8.29859 303.876C8.90358 310.031 11.0562 315.393 13.7721 320.317C19.4547 330.068 27.7308 337.873 37.008 344.573C46.3375 351.244 56.9036 356.675 68.0676 361.278C57.4874 355.971 47.3986 350.128 38.5169 343.132C29.5983 336.203 21.8083 328.167 16.5804 318.502C13.9703 313.68 11.9911 308.427 11.49 302.606C11.0008 296.894 11.8553 290.205 16.7662 284.528C21.6421 278.685 28.7975 274.083 35.9142 271.84C43.0494 269.563 50.0489 269.724 55.0026 272.304L55.0778 272.33L55.153 272.357L74.4006 279.068L93.793 285.581C100.278 287.725 106.7 289.951 113.249 292.012L132.83 298.278Z" fill="#C58F2C"/>
<path d="M408.564 295.219L330.445 267.32C318.864 261.231 298.906 267.724 288.008 281.873C275.841 297.674 290.572 347.106 367.315 369.54" fill="#E4B652"/>
<path d="M406.215 293.349L387.525 285.949C381.293 283.476 374.953 281.133 368.657 278.743L349.725 271.619L330.649 264.694L330.773 264.762C325.292 261.836 317.44 261.562 309.394 264.058C301.371 266.45 293.193 271.868 287.685 278.534C284.799 281.898 283.079 285.75 282.279 289.169C281.494 292.625 281.406 295.891 281.684 298.948C282.289 305.103 284.441 310.465 287.157 315.389C292.84 325.14 301.116 332.945 310.393 339.645C319.722 346.316 330.288 351.747 341.452 356.35C330.872 351.043 320.783 345.2 311.902 338.204C302.983 331.275 295.193 323.239 289.965 313.574C287.355 308.752 285.376 303.499 284.875 297.678C284.386 291.966 285.24 285.277 290.151 279.599C295.027 273.757 302.182 269.155 309.299 266.912C316.434 264.635 323.434 264.796 328.387 267.376L328.463 267.402L328.538 267.428L347.785 274.14L367.178 280.653C373.663 282.797 380.085 285.022 386.633 287.084L406.215 293.349Z" fill="#C58F2C"/>
<path d="M594.825 534.714C594.825 534.714 585.055 568.199 556.436 596.095C548.515 603.815 539.151 611.108 528.15 617.144C516.093 623.759 502.071 628.865 485.83 631.371C401.202 644.427 379.255 631.371 379.255 631.371C379.255 631.371 363.751 622.235 391.524 605.235C419.298 588.235 436.751 580.421 436.751 580.421C436.751 580.421 317.906 587.611 277.839 586.288" fill="#E4B652"/>
<path d="M341.877 584.594C341.877 584.594 269.699 594.898 185.442 611.08C142.1 619.392 121.209 618.581 111.605 616.786C105.12 615.556 99.7243 610.588 98.7094 604.12C97.7688 598.021 100.294 589.832 114.204 581.47C142.051 564.747 143.462 568.633 143.462 568.633C109.279 531.965 153.66 489.887 153.66 489.887C153.66 489.887 202.075 563.1 271.976 573.871" fill="#E4B652"/>
<path d="M152.966 489.887C172.862 530.963 240.598 558.828 284.243 576.338Z" fill="#E4B652"/>
<path d="M152.966 489.887C172.862 530.963 240.598 558.828 284.243 576.338" stroke="#C58F2C" stroke-width="1.302" stroke-miterlimit="10"/>
<path d="M435.925 580.913C425.194 575.267 415.944 566.317 410.591 555.122C407.952 549.525 406.571 543.312 406.423 537.123C406.275 530.909 407.36 524.72 409.259 518.827C411.233 512.934 414.143 507.51 417.276 502.208C420.631 497.08 424.158 492.05 428.278 487.513C436.319 478.291 445.372 470.105 454.968 462.659L448.332 468.872C446.088 470.894 444.04 473.163 441.869 475.283C439.674 477.379 437.676 479.647 435.629 481.866C433.532 484.036 431.657 486.403 429.733 488.746C425.91 493.406 422.407 498.313 419.2 503.392C416.216 508.595 413.428 513.921 411.603 519.592C409.728 525.238 408.593 531.131 408.692 537.049C408.741 542.966 410.073 548.835 412.343 554.333C414.686 559.807 418.09 564.812 422.136 569.275C426.107 573.738 430.769 577.683 435.925 580.913Z" fill="#C48F2C"/>
<path d="M35.175 286.575C38.7491 290.154 43.1505 291.552 45.006 289.699C46.8614 287.846 45.4682 283.443 41.8942 279.864C38.3202 276.286 33.9187 274.888 32.0633 276.741C30.2078 278.594 31.601 282.997 35.175 286.575Z" fill="#C58F2C"/>
<path d="M19.9322 288.378C22.712 291.161 26.3384 292.046 28.0321 290.354C29.7258 288.663 28.8453 285.035 26.0655 282.252C23.2857 279.469 19.6592 278.584 17.9656 280.276C16.2719 281.967 17.1524 285.595 19.9322 288.378Z" fill="#C58F2C"/>
<path d="M19.5833 301.187C22.6278 304.235 26.3294 305.474 27.8511 303.955C29.3728 302.435 28.1382 298.732 25.0937 295.683C22.0491 292.635 18.3475 291.396 16.8258 292.916C15.3042 294.436 16.5387 298.139 19.5833 301.187Z" fill="#C58F2C"/>
<path d="M35.4939 308.958C40.8373 314.308 47.8549 315.962 51.1682 312.653C54.4815 309.344 52.8358 302.324 47.4924 296.974C42.149 291.624 35.1314 289.97 31.8181 293.279C28.5048 296.589 30.1505 303.608 35.4939 308.958Z" fill="#C58F2C"/>
<path d="M309.23 280.817C312.299 284.837 316.477 286.806 318.562 285.215C320.646 283.623 319.848 279.074 316.779 275.055C313.71 271.035 309.532 269.066 307.448 270.657C305.363 272.249 306.161 276.797 309.23 280.817Z" fill="#C58F2C"/>
<path d="M294.842 279.853C297.229 282.98 300.491 284.501 302.129 283.251C303.767 282 303.159 278.452 300.772 275.325C298.385 272.199 295.123 270.678 293.485 271.928C291.847 273.179 292.455 276.727 294.842 279.853Z" fill="#C58F2C"/>
<path d="M292.897 290.717C295.054 293.542 297.768 295.094 298.959 294.185C300.15 293.276 299.367 290.249 297.21 287.424C295.054 284.599 292.34 283.047 291.149 283.956C289.958 284.865 290.741 287.892 292.897 290.717Z" fill="#C58F2C"/>
<path d="M306.448 302.867C310.959 308.776 317.633 311.263 321.356 308.421C325.078 305.579 324.438 298.486 319.927 292.577C315.416 286.668 308.741 284.182 305.019 287.023C301.297 289.865 301.937 296.959 306.448 302.867Z" fill="#C58F2C"/>
<path d="M339.252 132.593C339.252 132.593 337.705 119.295 327.648 117.969C317.566 116.67 314.8 125.984 314.8 125.984" stroke="#1E1C1A" stroke-width="3" stroke-miterlimit="10" stroke-linecap="round" stroke-linejoin="round"/>
<path d="M204.604 115.557C204.604 115.557 200.821 104.512 190.791 105.889C180.738 107.264 179.665 115.919 179.665 115.919" stroke="#1E1C1A" stroke-width="3" stroke-miterlimit="10" stroke-linecap="round" stroke-linejoin="round"/>
<path d="M256.075 169.699L252.224 189.962C252.224 189.962 254.892 200.616 271.156 204.605C272.293 204.872 273.453 204.97 274.614 204.897C278.372 204.678 286.609 203.583 290.646 198.548" stroke="#544B43" stroke-width="3" stroke-miterlimit="10" stroke-linecap="round" stroke-linejoin="round"/>
<path d="M252.224 188.911C252.224 188.911 243.904 201.04 230.553 198.039C217.202 195.039 217.003 188.911 217.003 188.911" stroke="#544B43" stroke-width="3" stroke-miterlimit="10" stroke-linecap="round" stroke-linejoin="round"/>
<path d="M567.326 470.203C567.326 470.203 581.969 456.637 592.377 432.434C602.785 408.231 621.87 423.048 624.478 435.162C627.035 447.051 638.837 476.836 569.831 509.099L559.604 487.899L567.326 470.203Z" fill="#E4B652"/>
</svg>
